X:145
T:Figure of Five TS.145
M:6/8
L:1/8
Q:3/8=120
S:Thomas Sands’ MS,1810,Lincolnshire
R:jig
O:England;Lincolnshire
Z:vmp.Ruairidh Greig, 2011
K:Bb
Bgf fdB|gab fdB|Bgf fdB|egec3|
Bgf fdB|gab fdB|efg fdB|cBA”dot added”B3:|
|:BGE cAF|dBG ecA|fdB gab|fedc3|
DBG EcA|FdB Gec|fdB gab|dec”dot added”B3:|]

